src/next/cmd/32/text.svg

<svg height="32" width="32" xmlns="http://www.w3.org/2000/svg" xmlns:xlink="http://www.w3.org/1999/xlink"><linearGradient id="a" gradientTransform="matrix(1.6722408 0 0 1.720232 -43.023411 -52.230943)" gradientUnits="userSpaceOnUse" x1="64" x2="64" y1="22.506487" y2="93.317558"><stop offset="0" stop-color="#1c1c1c"/><stop offset=".5" stop-color="#888"/><stop offset="1"/></linearGradient><g transform="scale(.25)"><path d="m54.892799 3.2812959v-2.79470843z" fill="#fff" fill-opacity=".756881"/><path d="m28.625 20-.625 26.65625h3.75c1.545151-8.454941 3.867266-13.924241 6.9375-16.4375 3.070234-2.509818 7.830895-2.21875 16.3125-2.21875h1v56c0 6.75363-2.549227 8.04497-4.15625 9.71875-1.610368 1.67207-5.308633 2.77379-11.84375 3.28125v3h24 24v-3c-6.535117-.50746-10.233382-1.60918-11.84375-3.28125-1.607023-1.67378-4.15625-2.96512-4.15625-9.71875v-56h1c8.481605 0 13.242266-.291068 16.3125 2.21875 3.07023 2.513259 5.39235 7.982559 6.9375 16.4375h3.75l-.625-26.65625h-35.375z" fill="url(#a)"/><g fill="#a4c0e4"><path d="m29.438 94.030998h69.125v1h-69.125z" transform="matrix(1.7359855 0 0 -4.0000011 -47.103939 488.1241)"/><g transform="matrix(4.0000046 0 0 1.6516129 -131.52422 -44.051613)"><path d="m35.881001 31.515625h1.000012v67.8125h-1.000012z"/><path d="m60.881001 31.515625h.999983v67.8125h-.999983z"/></g></g></g></svg>

<?xml version="1.0" encoding="UTF-8" standalone="no"?>
<!-- Created with Inkscape (http://www.inkscape.org/) -->

<svg
   xmlns:dc="http://purl.org/dc/elements/1.1/"
   xmlns:cc="http://creativecommons.org/ns#"
   xmlns:rdf="http://www.w3.org/1999/02/22-rdf-syntax-ns#"
   xmlns:svg="http://www.w3.org/2000/svg"
   xmlns="http://www.w3.org/2000/svg"
   xmlns:xlink="http://www.w3.org/1999/xlink"
   xmlns:sodipodi="http://sodipodi.sourceforge.net/DTD/sodipodi-0.dtd"
   xmlns:inkscape="http://www.inkscape.org/namespaces/inkscape"
   width="32"
   height="32"
   id="svg1307"
   sodipodi:version="0.32"
   inkscape:version="0.92.4 (unknown)"
   version="1.0"
   sodipodi:docname="text.svg"
   inkscape:output_extension="org.inkscape.output.svgz.inkscape"
   inkscape:export-filename="/home/rizmut/Dokumen/Rizmut/Github/libreoffice-style-karasa-jaga/build/next/cmd/32/text.png"
   inkscape:export-xdpi="96"
   inkscape:export-ydpi="96">
  <defs
     id="defs1309">
    <linearGradient
       id="linearGradient3180">
      <stop
         style="stop-color:#1c1c1c;stop-opacity:1;"
         offset="0"
         id="stop3182" />
      <stop
         id="stop3188"
         offset="0.5"
         style="stop-color:#888888;stop-opacity:1;" />
      <stop
         style="stop-color:#000000;stop-opacity:1;"
         offset="1"
         id="stop3184" />
    </linearGradient>
    <linearGradient
       inkscape:collect="always"
       xlink:href="#linearGradient3180"
       id="linearGradient3186"
       x1="37.688"
       y1="63.0005"
       x2="90.311996"
       y2="63.0005"
       gradientUnits="userSpaceOnUse" />
    <linearGradient
       inkscape:collect="always"
       xlink:href="#linearGradient3180"
       id="linearGradient3190"
       gradientUnits="userSpaceOnUse"
       x1="64"
       y1="22.506487"
       x2="64"
       y2="93.317558" />
    <radialGradient
       gradientUnits="userSpaceOnUse"
       r="154.149"
       cy="103.667"
       cx="98.125"
       id="XMLID_8_">
      <stop
         id="stop2919"
         style="stop-color:#A4C0E4;fill-opacity:1.0;fill:url(#linearGradient3186)"
         offset="0" />
      <stop
         id="stop2921"
         style="stop-color:#00438A;fill-opacity:1.0;fill:url(#linearGradient3186)"
         offset="1" />
    </radialGradient>
    <linearGradient
       inkscape:collect="always"
       xlink:href="#linearGradient3180"
       id="linearGradient3626"
       gradientUnits="userSpaceOnUse"
       x1="64"
       y1="22.506487"
       x2="64"
       y2="93.317558"
       gradientTransform="matrix(1.6722408,0,0,1.720232,-43.023411,-48.230943)" />
    <linearGradient
       inkscape:collect="always"
       xlink:href="#linearGradient3180"
       id="linearGradient3631"
       gradientUnits="userSpaceOnUse"
       gradientTransform="matrix(-1.6722408,0,0,1.720232,171.02341,-48.230943)"
       x1="64"
       y1="22.506487"
       x2="64"
       y2="93.317558" />
    <linearGradient
       inkscape:collect="always"
       xlink:href="#linearGradient3180"
       id="linearGradient3633"
       gradientUnits="userSpaceOnUse"
       gradientTransform="matrix(1.6722408,0,0,1.720232,-43.023411,-48.230943)"
       x1="64"
       y1="22.506487"
       x2="64"
       y2="93.317558" />
    <linearGradient
       inkscape:collect="always"
       xlink:href="#linearGradient3180"
       id="linearGradient3638"
       gradientUnits="userSpaceOnUse"
       gradientTransform="matrix(1.6722408,0,0,1.720232,-43.023411,-52.230943)"
       x1="64"
       y1="22.506487"
       x2="64"
       y2="93.317558" />
  </defs>
  <sodipodi:namedview
     id="base"
     pagecolor="#ffffff"
     bordercolor="#666666"
     borderopacity="1.0"
     inkscape:pageopacity="0.0"
     inkscape:pageshadow="2"
     inkscape:zoom="5.6568542"
     inkscape:cx="26.406596"
     inkscape:cy="24.199984"
     inkscape:current-layer="g4791"
     showgrid="true"
     inkscape:document-units="px"
     inkscape:grid-bbox="true"
     guidetolerance="0.1px"
     showguides="false"
     inkscape:guide-bbox="true"
     inkscape:window-width="1152"
     inkscape:window-height="970"
     inkscape:window-x="0"
     inkscape:window-y="165"
     gridtolerance="10000"
     inkscape:grid-points="true"
     showborder="true">
    <sodipodi:guide
       orientation="horizontal"
       position="32.487481"
       id="guide2204"
       inkscape:locked="false" />
    <inkscape:grid
       id="GridFromPre046Settings"
       type="xygrid"
       originx="0"
       originy="0"
       spacingx="0.5"
       spacingy="0.5"
       color="#0000ff"
       empcolor="#0000ff"
       opacity="0.2"
       empopacity="0.4"
       empspacing="2"
       visible="true"
       enabled="true" />
  </sodipodi:namedview>
  <metadata
     id="metadata1312">
    <rdf:RDF>
      <cc:Work
         rdf:about="">
        <dc:format>image/svg+xml</dc:format>
        <dc:type
           rdf:resource="http://purl.org/dc/dcmitype/StillImage" />
        <cc:license
           rdf:resource="http://creativecommons.org/licenses/GPL/2.0/" />
        <dc:contributor>
          <cc:Agent>
            <dc:title>Oxygen team</dc:title>
          </cc:Agent>
        </dc:contributor>
        <dc:title></dc:title>
      </cc:Work>
      <cc:License
         rdf:about="http://creativecommons.org/licenses/LGPL/2.1/">
        <cc:permits
           rdf:resource="http://web.resource.org/cc/Reproduction" />
        <cc:permits
           rdf:resource="http://web.resource.org/cc/Distribution" />
        <cc:requires
           rdf:resource="http://web.resource.org/cc/Notice" />
        <cc:permits
           rdf:resource="http://web.resource.org/cc/DerivativeWorks" />
        <cc:requires
           rdf:resource="http://web.resource.org/cc/ShareAlike" />
        <cc:requires
           rdf:resource="http://web.resource.org/cc/SourceCode" />
      </cc:License>
    </rdf:RDF>
  </metadata>
  <g
     id="layer1"
     inkscape:label="Layer 1"
     inkscape:groupmode="layer"
     transform="translate(0,-96)">
    <g
       id="g4791"
       transform="matrix(0.25,0,0,0.25,0,96)">
      <path
         style="fill:#ffffff;fill-opacity:0.75688076;fill-rule:nonzero;stroke:none"
         d="M 54.892799,3.2812959 V 0.48658747 Z"
         id="path2276"
         sodipodi:nodetypes="ccc"
         inkscape:connector-curvature="0" />
      <path
         sodipodi:nodetypes="cccccccscccccsccccccccc"
         id="path2923"
         d="M 28.625,20 28,46.65625 h 3.75 C 33.295151,38.201309 35.617266,32.732009 38.6875,30.21875 41.757734,27.708932 46.518395,28 55,28 h 1 v 56 c 0,6.75363 -2.549227,8.04497 -4.15625,9.71875 C 50.233382,95.39082 46.535117,96.49254 40,97 v 3 H 64 88 V 97 C 81.464883,96.49254 77.766618,95.39082 76.15625,93.71875 74.549227,92.04497 72,90.75363 72,84 V 28 h 1 c 8.481605,0 13.242266,-0.291068 16.3125,2.21875 3.07023,2.513259 5.39235,7.982559 6.9375,16.4375 H 100 L 99.375,20 H 64 Z"
         style="fill:url(#linearGradient3638);fill-opacity:1"
         inkscape:connector-curvature="0" />
      <g
         transform="matrix(1.7359855,0,0,-4.0000011,-47.103939,488.1241)"
         id="g2925"
         style="fill:#a4c0e4;fill-opacity:1">
        <radialGradient
           gradientUnits="userSpaceOnUse"
           r="165.9342"
           cy="114"
           cx="112.667"
           id="XMLID_9_">
          <stop
             id="stop2928"
             style="stop-color:#888A85"
             offset="0.0056" />
          <stop
             id="stop2930"
             style="stop-color:#EEEEEC"
             offset="1" />
        </radialGradient>
        <rect
           id="rect2932"
           height="1"
           width="69.125"
           y="94.030998"
           x="29.438"
           style="fill:#a4c0e4;fill-opacity:1" />
      </g>
      <g
         transform="matrix(4.0000046,0,0,1.6516129,-131.52422,-44.051613)"
         id="g2943"
         style="fill:#a4c0e4;fill-opacity:1">
        <radialGradient
           gradientUnits="userSpaceOnUse"
           r="165.9342"
           cy="114"
           cx="110.4854"
           id="XMLID_11_">
          <stop
             id="stop2946"
             style="stop-color:#888A85"
             offset="0.0056" />
          <stop
             id="stop2948"
             style="stop-color:#EEEEEC"
             offset="1" />
        </radialGradient>
        <rect
           id="rect2950"
           height="67.8125"
           width="1.000012"
           y="31.515625"
           x="35.881001"
           style="fill:#a4c0e4;fill-opacity:1" />
        <rect
           style="fill:#a4c0e4;fill-opacity:1"
           x="60.881001"
           y="31.515625"
           width="0.99998331"
           height="67.8125"
           id="rect3636" />
      </g>
    </g>
  </g>
</svg>
